202404-ahaslides-april/assets/images/2a.svg

<svg width="100" height="100" viewBox="0 0 100 100" fill="none" xmlns="http://www.w3.org/2000/svg">
<path d="M49.3064 57.8969L26.7247 35.1485C21.2786 41.4573 18.2793 49.5363 18.2793 57.8969C18.2793 66.2575 21.2786 74.3365 26.7247 80.6453L49.3064 57.8969ZM52.6879 54.8388V16.1292C42.0353 16.7851 32.5954 20.8173 24.9742 27.1012L52.6879 54.8388Z" fill="#2F68DC"/>
<path d="M57.6099 24.7312V56.6032L35.4834 78.945C40.4046 82.6266 46.3342 84.9463 53.0649 84.9463C69.5916 84.9463 82.7952 71.3299 82.7952 54.5353C82.7952 39.3051 71.9191 26.9669 57.6099 24.7312Z" fill="#2F68DC"/>
</svg>

<svg xmlns="http://www.w3.org/2000/svg" width="100" height="100" fill="none" viewBox="0 0 100 100">
  <path fill="#2F68DC" d="M49.306 57.897 26.725 35.149a34.816 34.816 0 0 0-8.446 22.748c0 8.36 3 16.44 8.446 22.748l22.581-22.748Zm3.382-3.058v-38.71c-10.653.656-20.093 4.688-27.714 10.972L52.688 54.84Z"/>
  <path fill="#2F68DC" d="M57.61 24.731v31.872L35.483 78.945c4.922 3.682 10.851 6.001 17.582 6.001 16.527 0 29.73-13.616 29.73-30.41 0-15.23-10.876-27.57-25.185-29.805Z"/>
</svg>
